X: 27240
T: Miss Sarah Drummond Of Perth
R: strathspey
M: 4/4
K: Amixolydian
|:ze/|A2e>d Bc/d/ e2|dgB>g dgBG|A2e>d Bc/d/e>f|gf/e/f>B A2:|
|:ef/g/|a2 e>a cae>f|g2 d>g B>gd>g|a2 e>a c>ae>f|gf/e/f>B A2:|

